X: 10
T: No_19_Song_of_War_Dance.krn
N: Derived from No_19_Song_of_War_Dance.krn
%%abc-version 2.0
%%abcx-abcm2ps-target-version 5.9.1 (29 Sep 2008)
%%abc-creator hum2abc beta
%%abcx-conversion-date 2019/03/15 08:27:55
%%humdrum-veritas 2122785152
%%humdrum-veritas-data 2299960374
%%linebreak <none>
%%barnumbers 0
L: 1/8
M: 2/4
%%staves {1 2}
V: 1 clef=bass
V: 2 clef=bass
K: F
[V:1] [K:clef=bass][M:2/4]F2C/C3/ ]|:  
[V:2] [K:clef=bass][M:2/4]G,,G,, G,,G,, ]|:  
[V:1] F2F2 | 
[V:2] z4 | 
[V:1] _E2F/C3/ | 
[V:2] z4 | 
[V:1] A,/A,3/A,2 | 
[V:2] z4 | 
[V:1] A,2G,2 | 
[V:2] z4 | 
[V:1] F,/F,3/F,2 | 
[V:2] z4 | 
[V:1] F, zA,2 | 
[V:2] z4 | 
[V:1] [M:3/4]G,/G,3/G,2G,2 | 
[V:2] [M:3/4]z6 | 
[V:1] [M:2/4]F,2G,2 | 
[V:2] [M:2/4]z4 | 
[V:1] [M:3/4](3A,G,F,F,2F,F, | 
[V:2] [M:3/4]z6 | 
[V:1] F,4F,/F,/ z | 
[V:2] z6 | 
[V:1] [M:2/4]G2F/F3/ :|]  
[V:2] [M:2/4]z4 :|]  



